src/assets/compendia/icons/tokens-core/department-command-rank-8-token.svg

<svg xmlns="http://www.w3.org/2000/svg" xml:space="preserve" style="fill-rule:evenodd;clip-rule:evenodd;stroke-linecap:round;stroke-miterlimit:1.5" viewBox="0 0 256 256"><path d="M0 0h256v256H0z" style="fill:none"/><g><circle cx="128" cy="128" r="128"/><path d="M128 0c70.645 0 128 57.355 128 128s-57.355 128-128 128S0 198.645 0 128 57.355 0 128 0m0 8C61.77 8 8 61.77 8 128s53.77 120 120 120 120-53.77 120-120S194.23 8 128 8" style="fill:#f54d3d"/><path d="m0 32.213-.877-6.967 4.836-2.204-5.25-1.461L-3.733 0l-2.442 21.581-5.248 1.461 4.559 2.204-.876 6.967 4.077-6.005z" style="fill:#f54d3d;fill-rule:nonzero" transform="translate(148.854 38)scale(5.58781)"/><path d="M1916.84 1455.5c3.71.33 7.44.5 11.16.5s7.45-.17 11.16-.5l-1.68-19.73c-3.15.29-6.32.43-9.48.43s-6.33-.14-9.48-.43z" style="fill:none;stroke:#f54d3d;stroke-width:8.66px" transform="matrix(.9375 0 0 .9091 -1679.5 -1075.64)"/><path d="M1894.87 1451.5a124.2 124.2 0 0 0 66.26 0l-4.97-19.12c-9.18 2.53-18.65 3.82-28.16 3.82s-18.97-1.29-28.16-3.82z" style="fill:none;stroke:#f54d3d;stroke-width:8.66px" transform="matrix(.9375 0 0 .9091 -1679.5 -1075.64)"/><path d="M1873.9 1443.63c16.95 8.15 35.41 12.37 54.1 12.37s37.15-4.22 54.1-12.37l-8.12-17.94c-14.4 6.92-30.09 10.51-45.98 10.51s-31.58-3.59-45.98-10.51z" style="fill:none;stroke:#f54d3d;stroke-width:8.66px" transform="matrix(.9375 0 0 .9091 -1679.5 -1075.64)"/></g></svg>

<?xml version="1.0" encoding="UTF-8" standalone="no"?>
<!DOCTYPE svg PUBLIC "-//W3C//DTD SVG 1.1//EN" "http://www.w3.org/Graphics/SVG/1.1/DTD/svg11.dtd">
<svg width="100%" height="100%" viewBox="0 0 256 256" version="1.1" xmlns="http://www.w3.org/2000/svg" xmlns:xlink="http://www.w3.org/1999/xlink" xml:space="preserve" xmlns:serif="http://www.serif.com/" style="fill-rule:evenodd;clip-rule:evenodd;stroke-linecap:round;stroke-miterlimit:1.5;">
    <g transform="matrix(1,0,0,1,-6600,-3300)">
        <g transform="matrix(1,0,0,1,6600,3300)">
            <rect id="department-command-rank-8-token" x="0" y="0" width="256" height="256" style="fill:none;"/>
            <g id="department-command-rank-8-token1" serif:id="department-command-rank-8-token">
                <circle cx="128" cy="128" r="128"/>
                <path d="M128,0C198.645,0 256,57.355 256,128C256,198.645 198.645,256 128,256C57.355,256 0,198.645 0,128C0,57.355 57.355,0 128,0ZM128,8C61.77,8 8,61.77 8,128C8,194.23 61.77,248 128,248C194.23,248 248,194.23 248,128C248,61.77 194.23,8 128,8Z" style="fill:rgb(245,77,61);"/>
                <g transform="matrix(5.58781,0,0,5.58781,148.854,38)">
                    <g id="Command">
                        <path id="Command1" serif:id="Command" d="M0,32.213L-0.877,25.246L3.959,23.042L-1.291,21.581L-3.733,0L-6.175,21.581L-11.423,23.042L-6.864,25.246L-7.74,32.213L-3.663,26.208L0,32.213Z" style="fill:rgb(245,77,61);fill-rule:nonzero;"/>
                    </g>
                </g>
                <g transform="matrix(0.9375,0,0,0.909091,-1679.5,-1075.64)">
                    <path d="M1916.84,1455.5C1920.55,1455.83 1924.28,1456 1928,1456C1931.72,1456 1935.45,1455.83 1939.16,1455.5L1937.48,1435.77C1934.33,1436.06 1931.16,1436.2 1928,1436.2C1924.84,1436.2 1921.67,1436.06 1918.52,1435.77L1916.84,1455.5Z" style="fill:none;stroke:rgb(245,77,61);stroke-width:8.66px;"/>
                </g>
                <g transform="matrix(0.9375,0,0,0.909091,-1679.5,-1075.64)">
                    <path d="M1894.87,1451.5C1905.68,1454.49 1916.81,1456 1928,1456C1939.19,1456 1950.32,1454.49 1961.13,1451.5L1956.16,1432.38C1946.98,1434.91 1937.51,1436.2 1928,1436.2C1918.49,1436.2 1909.03,1434.91 1899.84,1432.38L1894.87,1451.5Z" style="fill:none;stroke:rgb(245,77,61);stroke-width:8.66px;"/>
                </g>
                <g transform="matrix(0.9375,0,0,0.909091,-1679.5,-1075.64)">
                    <path d="M1873.9,1443.63C1890.85,1451.78 1909.31,1456 1928,1456C1946.69,1456 1965.15,1451.78 1982.1,1443.63L1973.98,1425.69C1959.58,1432.61 1943.89,1436.2 1928,1436.2C1912.11,1436.2 1896.42,1432.61 1882.02,1425.69L1873.9,1443.63Z" style="fill:none;stroke:rgb(245,77,61);stroke-width:8.66px;"/>
                </g>
            </g>
        </g>
    </g>
</svg>
